svgs/light/user-robot.svg

<svg xmlns="http://www.w3.org/2000/svg" viewBox="0 0 448 512"><!--! Font Awesome Pro 6.6.0 by @fontawesome - https://fontawesome.com License - https://fontawesome.com/license (Commercial License) Copyright 2024 Fonticons, Inc. --><path d="M240 16c0-8.8-7.2-16-16-16s-16 7.2-16 16l0 48-64 0c-44.2 0-80 35.8-80 80l0 96c0 44.2 35.8 80 80 80l160 0c44.2 0 80-35.8 80-80l0-96c0-44.2-35.8-80-80-80l-64 0 0-48zM96 144c0-26.5 21.5-48 48-48l160 0c26.5 0 48 21.5 48 48l0 96c0 26.5-21.5 48-48 48l0-32c0-8.8-7.2-16-16-16s-16 7.2-16 16l0 32-32 0 0-32c0-8.8-7.2-16-16-16s-16 7.2-16 16l0 32-32 0 0-32c0-8.8-7.2-16-16-16s-16 7.2-16 16l0 32c-26.5 0-48-21.5-48-48l0-96zM16 128c-8.8 0-16 7.2-16 16l0 96c0 8.8 7.2 16 16 16s16-7.2 16-16l0-96c0-8.8-7.2-16-16-16zm432 16c0-8.8-7.2-16-16-16s-16 7.2-16 16l0 96c0 8.8 7.2 16 16 16s16-7.2 16-16l0-96zM160 176a16 16 0 1 1 0-32 16 16 0 1 1 0 32zm-48-16a48 48 0 1 0 96 0 48 48 0 1 0 -96 0zm192 0a16 16 0 1 1 -32 0 16 16 0 1 1 32 0zm-16-48a48 48 0 1 0 0 96 48 48 0 1 0 0-96zM96 384l256 0c35.3 0 64 28.7 64 64l0 16c0 8.8-7.2 16-16 16l-32 0 0-32c0-17.7-14.3-32-32-32l-48 0-64 0-112 0c-17.7 0-32 14.3-32 32l0 32-32 0c-8.8 0-16-7.2-16-16l0-16c0-35.3 28.7-64 64-64zm112 64l0 32-32 0 0-32 32 0zm-96 0l32 0 0 32-32 0 0-32zm112 64l64 0 48 0 32 0 32 0c26.5 0 48-21.5 48-48l0-16c0-53-43-96-96-96L96 352c-53 0-96 43-96 96l0 16c0 26.5 21.5 48 48 48l32 0 32 0 48 0 64 0zm16-64l32 0 0 32-32 0 0-32zm96 0l0 32-32 0 0-32 32 0z"/></svg>

<svg xmlns="http://www.w3.org/2000/svg" viewBox="0 0 448 512"><!--! Font Awesome Pro 6.4.2 by @fontawesome - https://fontawesome.com License - https://fontawesome.com/license (Commercial License) Copyright 2023 Fonticons, Inc. --><path d="M240 16c0-8.8-7.2-16-16-16s-16 7.2-16 16V64H144c-44.2 0-80 35.8-80 80v96c0 44.2 35.8 80 80 80H304c44.2 0 80-35.8 80-80V144c0-44.2-35.8-80-80-80H240V16zM96 144c0-26.5 21.5-48 48-48H304c26.5 0 48 21.5 48 48v96c0 26.5-21.5 48-48 48V256c0-8.8-7.2-16-16-16s-16 7.2-16 16v32H240V256c0-8.8-7.2-16-16-16s-16 7.2-16 16v32H176V256c0-8.8-7.2-16-16-16s-16 7.2-16 16v32c-26.5 0-48-21.5-48-48V144zM16 128c-8.8 0-16 7.2-16 16v96c0 8.8 7.2 16 16 16s16-7.2 16-16V144c0-8.8-7.2-16-16-16zm432 16c0-8.8-7.2-16-16-16s-16 7.2-16 16v96c0 8.8 7.2 16 16 16s16-7.2 16-16V144zM160 176a16 16 0 1 1 0-32 16 16 0 1 1 0 32zm-48-16a48 48 0 1 0 96 0 48 48 0 1 0 -96 0zm192 0a16 16 0 1 1 -32 0 16 16 0 1 1 32 0zm-16-48a48 48 0 1 0 0 96 48 48 0 1 0 0-96zM96 384H352c35.3 0 64 28.7 64 64v16c0 8.8-7.2 16-16 16H368V448c0-17.7-14.3-32-32-32H288 224 112c-17.7 0-32 14.3-32 32v32H48c-8.8 0-16-7.2-16-16V448c0-35.3 28.7-64 64-64zm112 64v32H176V448h32zm-96 0h32v32H112V448zm112 64h64 48 32 32c26.5 0 48-21.5 48-48V448c0-53-43-96-96-96H96c-53 0-96 43-96 96v16c0 26.5 21.5 48 48 48H80h32 48 64zm16-64h32v32H240V448zm96 0v32H304V448h32z"/></svg>
